src/images/Icons/Light/Email.svg

<svg width="41" height="40" viewBox="0 0 41 40" fill="none" xmlns="http://www.w3.org/2000/svg">
<path opacity="0.4" d="M30 23.9402C30 26.7302 27.76 28.9902 24.97 29.0002H24.96H15.05C12.27 29.0002 10 26.7502 10 23.9602V23.9502C10 23.9502 10.006 19.5242 10.014 17.2982C10.015 16.8802 10.495 16.6462 10.822 16.9062C13.198 18.7912 17.447 22.2282 17.5 22.2732C18.21 22.8422 19.11 23.1632 20.03 23.1632C20.95 23.1632 21.85 22.8422 22.56 22.2622C22.613 22.2272 26.767 18.8932 29.179 16.9772C29.507 16.7162 29.989 16.9502 29.99 17.3672C30 19.5762 30 23.9402 30 23.9402Z" fill="#CD6B55"/>
<path d="M29.4759 13.6736C28.6099 12.0416 26.9059 10.9996 25.0299 10.9996H15.0499C13.1739 10.9996 11.4699 12.0416 10.6039 13.6736C10.4099 14.0386 10.5019 14.4936 10.8249 14.7516L18.2499 20.6906C18.7699 21.1106 19.3999 21.3196 20.0299 21.3196C20.0339 21.3196 20.0369 21.3196 20.0399 21.3196C20.0429 21.3196 20.0469 21.3196 20.0499 21.3196C20.6799 21.3196 21.3099 21.1106 21.8299 20.6906L29.2549 14.7516C29.5779 14.4936 29.6699 14.0386 29.4759 13.6736Z" fill="#CD6B55"/>
</svg>

<svg fill="none" height="40" viewBox="0 0 41 40" width="41" xmlns="http://www.w3.org/2000/svg"><g fill="#cd6b55"><path d="m30 23.9402c0 2.79-2.24 5.05-5.03 5.06h-.01-9.91c-2.78 0-5.05-2.25-5.05-5.04v-.01s.006-4.426.014-6.652c.001-.418.481-.652.808-.392 2.376 1.885 6.625 5.322 6.678 5.367.71.569 1.61.89 2.53.89s1.82-.321 2.53-.901c.053-.035 4.207-3.369 6.619-5.285.328-.261.81-.027.811.39.01 2.209.01 6.573.01 6.573z" opacity=".4"/><path d="m29.4759 13.6736c-.866-1.632-2.57-2.674-4.446-2.674h-9.98c-1.876 0-3.58 1.042-4.446 2.674-.194.365-.102.82.221 1.078l7.425 5.939c.52.42 1.15.629 1.78.629h.01.01c.63 0 1.26-.209 1.78-.629l7.425-5.939c.323-.258.415-.713.221-1.078z"/></g></svg>
